lib/svgs/medal.svg

<svg xmlns="http://www.w3.org/2000/svg" viewBox="0 0 20 20">
    <path fill="#000" fill-rule="evenodd" d="M17.4962,14.3 L15.0262,11.22 L15.0362,10.95 C15.0362,10.89 15.0562,10.84 15.0962,10.8 L16.1462,9.69 C16.6662,9.14 16.6662,8.27 16.1462,7.72 L15.0962,6.61 C15.0562,6.57 15.0362,6.52 15.0362,6.46 L14.9962,4.93 C14.9762,4.18 14.3662,3.57 13.6062,3.55 L11.9862,3.5 L10.8162,2.39 C10.2662,1.87 9.4062,1.87 8.8562,2.39 L7.7462,3.44 C7.6962,3.48 7.6462,3.5 7.5962,3.5 L6.0662,3.55 C5.3062,3.57 4.6962,4.18 4.6762,4.93 L4.6362,6.46 C4.6262,6.52 4.6062,6.57 4.5662,6.61 L3.5162,7.72 C2.9962,8.27 2.9962,9.14 3.5162,9.69 L4.5662,10.8 C4.6062,10.84 4.6262,10.89 4.6362,10.95 L4.6562,11.62 L2.5062,14.3 C2.3662,14.48 2.3362,14.71 2.4162,14.92 C2.5062,15.12 2.6962,15.26 2.9162,15.28 L5.1362,15.46 L5.7962,17.58 C5.8562,17.79 6.0362,17.95 6.2562,17.99 C6.2862,18 6.3262,18 6.3662,18 C6.5462,18 6.7162,17.92 6.8362,17.78 L8.9762,15.11 C9.2262,15.31 9.5262,15.41 9.8362,15.41 C10.1862,15.41 10.5362,15.28 10.8162,15.02 L10.8962,14.95 L13.1662,17.78 C13.2762,17.92 13.4562,18 13.6362,18 C13.6662,18 13.7062,18 13.7462,17.99 C13.9662,17.95 14.1362,17.79 14.2062,17.58 L14.8662,15.46 L17.0762,15.28 C17.2962,15.26 17.4862,15.12 17.5762,14.92 C17.6662,14.71 17.6362,14.48 17.4962,14.3 L17.4962,14.3 Z M10.1362,14.01 L9.9862,14.15 C9.9162,14.22 9.8062,14.23 9.7162,14.18 C9.6962,14.17 9.6862,14.16 9.6762,14.15 L8.5662,13.1 C8.3062,12.86 7.9762,12.72 7.6262,12.71 L6.0962,12.67 C5.9762,12.66 5.8762,12.56 5.8762,12.44 L5.8262,10.91 C5.8262,10.71 5.7762,10.51 5.6862,10.33 C5.6262,10.2 5.5462,10.08 5.4462,9.97 L4.3862,8.86 C4.3062,8.77 4.3062,8.64 4.3862,8.55 L5.4362,7.44 C5.6862,7.18 5.8262,6.85 5.8262,6.5 L5.8762,4.97 C5.8762,4.85 5.9762,4.75 6.0962,4.75 L7.6262,4.7 C7.9762,4.69 8.3062,4.55 8.5662,4.31 L9.6762,3.26 C9.7262,3.22 9.7762,3.2 9.8362,3.2 C9.8862,3.2 9.9462,3.22 9.9862,3.26 L11.3362,4.53 C11.4362,4.63 11.5762,4.69 11.7262,4.69 L13.5762,4.75 C13.6962,4.75 13.7862,4.85 13.7962,4.97 L13.8362,6.5 C13.8462,6.85 13.9862,7.18 14.2262,7.44 L15.2762,8.55 C15.3562,8.64 15.3562,8.77 15.2762,8.86 L14.2262,9.97 C14.1862,10.01 14.1562,10.05 14.1262,10.1 C13.9462,10.33 13.8462,10.61 13.8362,10.91 L13.7962,12.44 C13.7862,12.56 13.6962,12.66 13.5762,12.67 L12.0462,12.71 C11.6962,12.72 11.3562,12.86 11.1062,13.1 L10.1362,14.01 L10.1362,14.01 Z M12.9201,8.7058 C12.9201,7.0038 11.5361,5.6188 9.8341,5.6188 C8.1321,5.6188 6.7481,7.0038 6.7481,8.7058 C6.7481,10.4068 8.1321,11.7918 9.8341,11.7918 C11.5361,11.7918 12.9201,10.4068 12.9201,8.7058 L12.9201,8.7058 Z M9.8341,10.5918 C8.7941,10.5918 7.9481,9.7458 7.9481,8.7058 C7.9481,7.6658 8.7941,6.8198 9.8341,6.8198 C10.8741,6.8198 11.7201,7.6658 11.7201,8.7058 C11.7201,9.7458 10.8741,10.5918 9.8341,10.5918 L9.8341,10.5918 Z"/>
</svg>

<svg xmlns="http://www.w3.org/2000/svg" viewBox="0 0 20 20">
    <path fill="#000" fill-rule="evenodd" d="M17.496 14.3l-2.47-3.08.01-.27c0-.06.02-.11.06-.15l1.05-1.11c.52-.55.52-1.42 0-1.97l-1.05-1.11a.204.204 0 0 1-.06-.15l-.04-1.53c-.02-.75-.63-1.36-1.39-1.38l-1.62-.05-1.17-1.11c-.55-.52-1.41-.52-1.96 0l-1.11 1.05a.24.24 0 0 1-.15.06l-1.53.05c-.76.02-1.37.63-1.39 1.38l-.04 1.53c-.01.06-.03.11-.07.15l-1.05 1.11c-.52.55-.52 1.42 0 1.97l1.05 1.11c.04.04.06.09.07.15l.02.67-2.15 2.68a.63.63 0 0 0-.09.62c.09.2.28.34.5.36l2.22.18.66 2.12c.06.21.24.37.46.41.03.01.07.01.11.01.18 0 .35-.08.47-.22l2.14-2.67c.25.2.55.3.86.3.35 0 .7-.13.98-.39l.08-.07 2.27 2.83c.11.14.29.22.47.22.03 0 .07 0 .11-.01a.6.6 0 0 0 .46-.41l.66-2.12 2.21-.18a.605.605 0 0 0 .42-.98m-7.36-.29l-.15.14c-.07.07-.18.08-.27.03-.02-.01-.03-.02-.04-.03l-1.11-1.05c-.26-.24-.59-.38-.94-.39l-1.53-.04a.238.238 0 0 1-.22-.23l-.05-1.53c0-.2-.05-.4-.14-.58-.06-.13-.14-.25-.24-.36l-1.06-1.11a.23.23 0 0 1 0-.31l1.05-1.11c.25-.26.39-.59.39-.94l.05-1.53c0-.12.1-.22.22-.22l1.53-.05c.35-.01.68-.15.94-.39l1.11-1.05c.05-.04.1-.06.16-.06.05 0 .11.02.15.06l1.35 1.27c.1.1.24.16.39.16l1.85.06c.12 0 .21.1.22.22l.04 1.53c.01.35.15.68.39.94l1.05 1.11c.08.09.08.22 0 .31l-1.05 1.11c-.04.04-.07.08-.1.13-.18.23-.28.51-.29.81l-.04 1.53c-.01.12-.1.22-.22.23l-1.53.04c-.35.01-.69.15-.94.39l-.97.91m2.784-5.304a3.09 3.09 0 0 0-6.172 0 3.09 3.09 0 0 0 6.172 0m-3.086 1.886a1.888 1.888 0 1 1 .004-3.776 1.888 1.888 0 0 1-.004 3.776"/>
</svg>
